X: 31442
T: Paddy Shannon's
R: reel
M: 4/4
K: Gmajor
|:e|dg{a}ge dGBG|{FG}F2DE FGAc|dg{a}ge dGBG|DCB,C DGG2|
dg{a}ge dGBG|{FG}F2DE FGAc|~d2de fdef|defd ~g3:|
|:G|DG~G2 AGFG|ABcA d3e|=fedc BGFG|AG=FD DCB,C|
DE=FE DG~G2|AG~G2 ABcA|d3e =fedc|AGGF G3:|
DGG2 AGFG|ABcA d3e|=fedc BG^FG|AG=FD DCB,C|
DE=FE DGG2|AGG2 ABcA|d3e =fedc|AGGF AGGF G3 G||
DGG2 AGFG|ABcA d3e|=fedc BG^FG|AG=FD DCB,C|
DE=FE DGG2|ABcA|d3e =fedc|AGGF G3||

